!!!OTL: Vater und Tochter Es wollt ein Jaeger jagen,
!!!ARE: Europa, Suedosteuropa, Jugoslavija, Batschka, Backo - Dobropolje
!!!YOR: 7, S. 21
!!    1938 aufgezeichnet
!!!SCT: Q0142D
!!!YEM: Copyright 1995, estate of Helmut Schaffrath.
**kern
*ICvox
*Ivox
*M2/4
*k[f#]
*G:
{8d
=1
8g
8g
8g
8a
=2
8b
8g
4d}
=3
{4e
8c
8e
=4
4d
8r}
{8d
=5
8a
8a
8a
8b
=6
8cc
8a
4a}
=7
{8.b
16g
8g
8e
=8
8e
8d
8d}
{8d
=9
8B
8d
8B
8d
=10
4g
4b}
=11
{4cc
4a
=12
4f#
8e
8f#
=13
4.g}
==
!!!AGN: Ballade, Verfuehrung, Verwechslung
!! Zweite Zeile refrainartig.
!!!ONB: ESAC (Essen Associative Code) Database: BALLADE
!!!AMT: simple duple
!!!AIN: vox
!!!EED: Helmut Schaffrath
!!!EEV: 1.0
*-
